www/assets/icons/wine_bar.svg

<svg xmlns="http://www.w3.org/2000/svg" width="24" height="24" viewBox="0 0 24 24" fill='currentColor'><path d="M6 3v6c0 2.97 2.16 5.43 5 5.91V19H8v2h8v-2h-3v-4.09c2.84-.48 5-2.94 5-5.91V3zm10 5H8V5h8z"/></svg>

<svg width="24" height="24" viewBox="0 0 24 24" xmlns="http://www.w3.org/2000/svg" fill='currentColor'><path d="M6 3V9C6 11.97 8.16 14.43 11 14.91V19H8V21H16V19H13V14.91C15.84 14.43 18 11.97 18 9V3H6ZM16 8H8V5H16V8Z"/></svg>
